64x64/mimetypes/text-x-maxima-out.svg

<svg height="64" width="64" xmlns="http://www.w3.org/2000/svg"><path d="m12.75 5c-1.524 0-2.75 1.249-2.75 2.8v50.4c0 1.55 1.226 2.8 2.75 2.8h38.5c1.522 0 2.75-1.25 2.75-2.8v-35.2l-14-4-4-14z" opacity=".2"/><path d="m12.75 4c-1.524 0-2.75 1.249-2.75 2.8v50.4c0 1.55 1.226 2.8 2.75 2.8h38.5c1.522 0 2.75-1.25 2.75-2.8v-35.2l-14-4-4-14z" fill="#404b8b"/><path d="m54 23-18-18v15.188a2.806 2.806 0 0 0 2.813 2.812z" opacity=".2"/><path d="m54 22-18-18v15.188a2.806 2.806 0 0 0 2.813 2.812z" fill="#6672ba"/><path d="m12.75 4c-1.524 0-2.75 1.25-2.75 2.8v1c0-1.55 1.226-2.8 2.75-2.8h23.25v-1z" fill="#f4f4f7" opacity=".1"/><path d="m24 32v2l.009.857 4.354 7.143-4.363 7.143v2.857h16v-4h-3v1h-10.09l4.363-7-4.364-7h9.091v1h3v-4z" opacity=".2"/><path d="m24 31v2l.009.857 4.354 7.143-4.363 7.143v2.857h16v-4h-3v1h-10.09l4.363-7-4.364-7h9.091v1h3v-4z" fill="#f26265"/></svg>

<svg xmlns="http://www.w3.org/2000/svg" width="64" height="64"><path style="opacity:.2" d="M12.75 5C11.226 5 10 6.249 10 7.8v50.4c0 1.55 1.226 2.8 2.75 2.8h38.5c1.522 0 2.75-1.25 2.75-2.8V23l-14-4-4-14z"/><path style="fill:#404b8b" d="M12.75 4C11.226 4 10 5.249 10 6.8v50.4c0 1.55 1.226 2.8 2.75 2.8h38.5c1.522 0 2.75-1.25 2.75-2.8V22l-14-4-4-14z"/><path style="opacity:.2" d="M54 23 36 5v15.188A2.806 2.806 0 0 0 38.813 23z"/><path style="fill:#6672ba" d="M54 22 36 4v15.188A2.806 2.806 0 0 0 38.813 22z"/><path style="opacity:.1;fill:#f4f4f7" d="M12.75 4C11.226 4 10 5.25 10 6.8v1C10 6.25 11.226 5 12.75 5H36V4H12.75z"/><path style="opacity:.2" d="M24 32v2l.009.857L28.363 42 24 49.143V52h16v-4h-3v1H26.91l4.363-7-4.364-7H36v1h3v-4H24z"/><path style="fill:#f26265" d="M24 31v2l.009.857L28.363 41 24 48.143V51h16v-4h-3v1H26.91l4.363-7-4.364-7H36v1h3v-4H24z"/></svg>
